X: 29082
T: Neillie Boyle's
R: reel
M: 4/4
K: Amajor
ABce dBcB|ABcd ec a2|ABce dBcA|BABc d2 cB|
ABce dBcB|ABcd ec a2|ABce dBcA|BABc d2 cB||
cefe aefe|cefe a2 AB|cefe aefe|BABc d2 cB|
cefe aefe|cefe a2 AB|cefe aefe|BABc d2 cB||
A2 cA EAcA|FAcA GdBG|A2 cA EAcA|FABc d2 cB|
A2 cA EAcA|FAcA GdBG|A2 cA EAcA|FABc d2 cB||

